src/assets/svg/react-icon.svg

<svg width="48" height="48" viewBox="0 0 48 48" fill="none" xmlns="http://www.w3.org/2000/svg">
<path d="M28.0178 23.9639C28.0178 21.8122 26.2189 20.0678 23.9995 20.0678C21.7803 20.0678 19.9812 21.8122 19.9812 23.9639C19.9812 26.1157 21.7803 27.8601 23.9995 27.8601C26.2189 27.8601 28.0178 26.1157 28.0178 23.9639Z" fill="#53C1DE"/>
<path fill-rule="evenodd" clip-rule="evenodd" d="M37.0501 16.7306C37.8987 13.3872 38.9654 7.18722 35.2051 5.08524C31.4625 2.99242 26.5922 7.00264 24.0204 9.40978C21.4562 7.02663 16.449 3.03355 12.692 5.1422C8.95077 7.24204 10.1045 13.3392 10.9719 16.7035C7.48198 17.6646 1.49951 19.7346 1.49951 23.9639C1.49951 28.1811 7.47575 30.4332 10.945 31.3933C10.0744 34.7763 8.97845 40.7864 12.7244 42.8815C16.4954 44.9898 21.4871 41.0918 24.0826 38.6583C26.6708 41.0796 31.4944 45.0031 35.2378 42.9021C38.993 40.7945 38.0149 34.6776 37.1474 31.2937C40.5104 30.3315 46.4995 28.1285 46.4995 23.9639C46.4995 19.7752 40.485 17.6884 37.0501 16.7306ZM36.6239 29.5004C36.0543 27.7524 35.2856 25.8934 34.3452 23.9731C35.2427 22.0982 35.9816 20.2632 36.5353 18.5263C39.0533 19.2341 44.5773 20.8519 44.5773 23.9639C44.5773 27.1049 39.2765 28.7381 36.6239 29.5004ZM34.2745 41.289C31.4816 42.8565 27.3327 39.1045 25.4213 37.3213C26.6893 35.9766 27.9565 34.4133 29.1932 32.6774C31.3688 32.4903 33.4241 32.1843 35.2879 31.7666C35.8985 34.1601 37.0798 39.7144 34.2745 41.289ZM13.6849 41.2666C10.8917 39.705 12.1684 34.3419 12.8089 31.85C14.652 32.2453 16.6924 32.5297 18.8731 32.7012C20.118 34.3998 21.4219 35.9612 22.7359 37.3285C21.1124 38.8511 16.4913 42.8355 13.6849 41.2666ZM3.42174 23.9639C3.42174 20.811 8.91261 19.205 11.4881 18.4989C12.0513 20.2748 12.7899 22.1316 13.6814 24.0092C12.7784 25.9149 12.0292 27.8012 11.4608 29.598C9.00505 28.9164 3.42174 27.1187 3.42174 23.9639ZM13.6551 6.75531C16.4598 5.18125 20.8116 9.01474 22.6733 10.7402C21.3661 12.1013 20.0742 13.6509 18.84 15.3397C16.7236 15.5299 14.6976 15.8354 12.8351 16.2445C12.1364 13.5311 10.8534 8.32768 13.6551 6.75531ZM30.5684 17.3656C32.0043 17.5414 33.3799 17.775 34.6716 18.061C34.2838 19.2661 33.8005 20.5262 33.2313 21.818C32.4061 20.2999 31.5203 18.8124 30.5684 17.3656ZM24.021 12.0722C24.9077 13.0035 25.7957 14.0435 26.6692 15.1717C24.8973 15.0905 23.1225 15.0901 21.3506 15.1705C22.2249 14.0527 23.1204 13.0143 24.021 12.0722ZM14.7843 21.8167C14.2244 20.5293 13.7455 19.2636 13.3543 18.0413C14.6383 17.7626 16.0075 17.535 17.434 17.3622C16.4794 18.8057 15.5952 20.2927 14.7843 21.8167ZM17.475 30.6986C16.0013 30.5391 14.6114 30.323 13.3279 30.0521C13.7252 28.8082 14.2147 27.5152 14.7865 26.2003C15.6086 27.7399 16.5062 29.2413 17.475 30.6986ZM24.0742 35.9872C23.1631 35.0339 22.2543 33.9796 21.3667 32.8456C23.1488 32.9135 24.9342 32.9136 26.716 32.8365C25.8397 33.9912 24.9549 35.0471 24.0742 35.9872ZM33.2496 26.1333C33.8511 27.4625 34.3581 28.7485 34.7608 29.9714C33.4559 30.2601 32.0473 30.4926 30.563 30.6652C31.522 29.1911 32.4218 27.6804 33.2496 26.1333ZM28.1204 30.8911C25.3947 31.0799 22.6519 31.0779 19.9252 30.9066C18.3758 28.7122 16.9967 26.4044 15.8061 24.0087C16.9908 21.6178 18.3601 19.3146 19.9021 17.1237C22.6308 16.9237 25.3762 16.9232 28.1049 17.1249C29.6336 19.3157 31.0008 21.6129 32.213 23.9822C31.0151 26.3719 29.6388 28.6797 28.1204 30.8911ZM34.245 6.69989C37.0504 8.26881 35.8016 13.8409 35.1888 16.2638C33.3219 15.8462 31.2945 15.5353 29.1719 15.3422C27.9354 13.6351 26.6542 12.0828 25.3681 10.7392C27.2538 8.97661 31.4666 5.14633 34.245 6.69989Z" fill="#53C1DE"/>
</svg>

<svg width="48" height="48" fill="none" xmlns="http://www.w3.org/2000/svg"><path d="M28.018 23.964c0-2.152-1.8-3.896-4.018-3.896-2.22 0-4.019 1.744-4.019 3.896s1.8 3.896 4.018 3.896c2.22 0 4.019-1.744 4.019-3.896z" fill="#53C1DE"/><path fill-rule="evenodd" clip-rule="evenodd" d="M37.05 16.73c.849-3.343 1.915-9.543-1.845-11.645-3.742-2.093-8.613 1.918-11.185 4.325-2.564-2.383-7.571-6.376-11.328-4.268-3.741 2.1-2.588 8.197-1.72 11.561-3.49.962-9.472 3.032-9.472 7.26 0 4.218 5.976 6.47 9.445 7.43-.87 3.383-1.967 9.393 1.78 11.489 3.77 2.108 8.762-1.79 11.358-4.224 2.588 2.422 7.411 6.345 11.155 4.244 3.755-2.108 2.777-8.224 1.91-11.608 3.362-.963 9.351-3.166 9.351-7.33 0-4.189-6.014-6.276-9.449-7.233zm-.426 12.77c-.57-1.748-1.338-3.607-2.279-5.527.898-1.875 1.637-3.71 2.19-5.447 2.518.708 8.042 2.326 8.042 5.438 0 3.14-5.3 4.774-7.953 5.536zm-2.35 11.789c-2.792 1.567-6.941-2.184-8.853-3.968 1.268-1.344 2.535-2.908 3.772-4.644 2.176-.187 4.231-.493 6.095-.91.61 2.393 1.792 7.947-1.013 9.522zm-20.59-.022c-2.792-1.562-1.516-6.925-.875-9.417 1.843.395 3.883.68 6.064.851a45.66 45.66 0 0 0 3.863 4.627c-1.624 1.523-6.245 5.508-9.051 3.939zM3.423 23.964c0-3.153 5.49-4.759 8.066-5.465a43.862 43.862 0 0 0 2.193 5.51 44.543 44.543 0 0 0-2.22 5.589c-2.456-.682-8.04-2.48-8.04-5.634zM13.655 6.755c2.805-1.574 7.157 2.26 9.018 3.985a44.965 44.965 0 0 0-3.833 4.6c-2.116.19-4.142.495-6.005.904-.699-2.713-1.982-7.916.82-9.489zm16.913 10.61c1.436.176 2.812.41 4.104.696a39.005 39.005 0 0 1-1.44 3.757 61.759 61.759 0 0 0-2.664-4.452zm-6.547-5.293a40.161 40.161 0 0 1 2.648 3.1 58.38 58.38 0 0 0-5.318-.002 41.43 41.43 0 0 1 2.67-3.098zm-9.237 9.745a40.337 40.337 0 0 1-1.43-3.776 44.595 44.595 0 0 1 4.08-.679 54.414 54.414 0 0 0-2.65 4.455zm2.691 8.882a42.121 42.121 0 0 1-4.147-.647 40.965 40.965 0 0 1 1.459-3.852 54.474 54.474 0 0 0 2.688 4.499zm6.6 5.288a42.234 42.234 0 0 1-2.708-3.141c1.782.068 3.567.068 5.349-.01a39.887 39.887 0 0 1-2.642 3.151zm9.175-9.854a38.827 38.827 0 0 1 1.51 3.838 41.958 41.958 0 0 1-4.197.694 61.673 61.673 0 0 0 2.687-4.532zm-5.13 4.758a62.237 62.237 0 0 1-8.195.016 52.394 52.394 0 0 1-4.119-6.898 52.342 52.342 0 0 1 4.096-6.885c2.729-.2 5.474-.2 8.203 0a58.706 58.706 0 0 1 4.108 6.858 58.696 58.696 0 0 1-4.093 6.91zM34.245 6.7c2.805 1.569 1.557 7.14.944 9.564a47.404 47.404 0 0 0-6.017-.922c-1.237-1.707-2.518-3.26-3.804-4.603 1.886-1.762 6.099-5.593 8.877-4.04z" fill="#53C1DE"/></svg>
